X:1
T:James Gibb editions
T:Salve Regina - Palestrina
T:#
%%score [ 1 2 3 4 ]
L:1/8
Q:1/4=100
M:4/4
K:F
V:1 treble nm="Soprano" snm="Soprano"
V:2 treble nm="Alto" snm="Alto"
V:3 treble-8 nm="Tenor" snm="Tenor"
V:4 bass nm="Bass" snm="Bass"
V:1
"^Salve Regina""^G. P. da Palestrina\n(1525-94)" z8 | z8 | z8 | z8 | (d8 | c8 | d8) | %7
w: ||||Sal\-|||
[M:4/4] G2 G2 (B2 A2- | A2 GF G4 | A4 D4) | z2 (G4 F2- | F2 E2 F2 G2) | D4 z4 | z2 F4 _E2 | %14
w: ve Re- gi\- *||* na,|Ma\- *||ter|mi- se-|
 D2 (B3 A A2- | AG G4) ^F2 | G4 z4 | (d8- | c8 | d8 | G4 d4 | (c6 B2 | A4) G4 | F4 G4 | B4 c4- | %25
w: ri- cor\- * *|* * * di-|ae,|Vi\-|||ta, dul-|ce\- *|* do,|et spes|no- stra,|
 c2 B2) A4 | G4 z2 G2 | B2 c2 (d4- | d2 cB A4) | D4 z4 | z8 | z4 z2 d2- | d2 c2 B2 A2 | %33
w: * * Sal-|ve! Ad|te cla- ma\-||mus,||ex\-|* su- les fi-|
 (FGAB c2) (B2- | BA G4 ^FE | ^FGAB c2 d2- | d2 c2 B2) (AG | A4) z4 | z8 | z8 | z2 A4 A2 | %41
w: lii * * * * He\-|||* * * vae. *||||Ad te|
 B2 c2 (d4- | d2 ^c=B c2 d2) | A4 z4 | z8 | d4 d4 | c6 B2 | A8 | A8 | z2 d4 ^c2 | d2 A2 d2 =c2 | %51
w: sus- pi- ra\-||mus,||ge- men-|tes et|flen-|tes,|In hac|la- cri- ma- rum|
 (B4 A4 | G4) A4 | z4 z2 d2- | d2 ^c2 d2 A2 | %55
w: val\- *|* le,|in|* hac la- cri-|
[Q:1/4=98] d3[Q:1/4=96] =c[Q:1/4=95] (B2[Q:1/4=93] A2- | %56
w: ma- rum val\- *|
[Q:1/4=91] A[Q:1/4=90]G[Q:1/4=88] A4[Q:1/4=85] ^F2) |[Q:1/4=85] G8 |] %58
w: |le.|
[M:4/4][Q:1/4=85]"^Secunda pars"[Q:1/4=100][Q:1/4=85][Q:1/4=85][Q:1/4=85] (D4 F3 G | A4) D2 (B2- | %60
w: E\- * *|* ja er\-|
 BAGF G4 | A8) | G4 z4 | d6 c2 | B2 A2 G4 |[Q:1/4=100][Q:1/4=100][Q:1/4=100][Q:1/4=100] D4 (d3 c | %66
w: ||go,|Ad- vo-|ca- ta no-|stra, no\- *|
 B2 AG A4) | d8 | z2 B4 A2 | B4 (A3 B | cBAG A4) | G4 z2 G2- | G2 F4 _E2 | D2 D2 z4 | z2 d4 c2- | %75
w: |stra,|Il- los|tu- os *||* mi\-|* se- ri-|cor- des,|mi- se\-|
 c2 B2 (A2 GF | G3) A B4- | B2 B2 A4 | c4 d4 | c6 B2 | (A8 | =B4) z4 | d8 | d8 | d8 | z8 | d6 G2 | %87
w: * ri- cor\- * *|* des o\-|* cu- los|ad nos|con- ver-|te.||Et|Je-|sum,||be- ne-|
 (B2 A2 B3 c | d4) D4 | z2 F4 E2 | F2 G2 A4 | A2 F2 F2 F2 | F2 E2 F3 _E | D2 (_E3 D D2) | %94
w: di\- * * *|* ctum|fru- ctum|ven- tris tu-|i, No- bis, post|hoc e- xi- li-|um, o\- * *|
 C4 D2 B2 | B2 B2 B2 A2 | B3 A G2 (A2- | AG G4 ^F2) | (G3 F _E4) | D4 z2 G2 | A4 =B4 | c4 (d4- | %102
w: sten- de, no-|bis, post hoc e-|xi- li- um, o\-||sten\- * *|de. O|cle- mens,|O pi\-|
 d2 cB c4) | d4 D4 | E4 ^F4 | G4 E2 (=F2- | F2 G4) A2- | A^F B4 AG | ^F2 G4 F2 | G8 | D8 | z4 D4 | %112
w: |a, O|dul- cis|Vir- go Ma\-|* * ri\-||||a,|O|
 E4[Q:1/4=98] ^F4 |[Q:1/4=96] G4[Q:1/4=94] G2[Q:1/4=93] G2 |[Q:1/4=91] A8 | %115
w: dul- cis|Vir- go Ma-|ri-|
[Q:1/4=86] !fermata!=B8 |] %116
w: a.|
V:2
 z8 | z8 | z8 | z8 | z8 | z8 | z8 |[M:4/4] (d8 | c8 | d8) | G4 d4 | (c6 B2 | A4) G4 | F4 G2 G2 | %14
w: |||||||Sal\-|||ve Re-|gi\- *|* na,|Ma- ter mi-|
 B2 B2 (c4- | c2 B2 A2) A2 | G8 | z8 | z4 z2 (G2- | G2 ^FE F2 G2 | _E4) D4 | z4 z2 G2- | %22
w: se- ri- cor\-|* * * di-|ae,||Vi\-||* ta,|dul\-|
 G2 (F4 E2) | D2 A2 c4 | d4 A4 | d8 | B2 G2 (B3 c | d2) A2 (B4- | B2 AG F3 G | A2 G4 ^F2 | G4) D4 | %31
w: * ce\- *|do, et spes|no- stra,|Sal-|ve! Ad te *|* cla- ma\-|||* mus,|
 z8 | z2 G4 F2 | D2 F4 G2 | _E4 D4 | z8 | z4 z2 D2- | D2 D2 E2 ^F2 | (G6 =FE | FG A2 G2 F2- | %40
w: |ex- su-|les fi- lii|He- vae.||Ad|* te sus- pi-|ra\- * *||
 F2 ED E2 F2- | F2 E2 D4) | E4 z2 F2 | F4 E4- | E2 D2 C4 | G4 z2 D2 | F2 E2 A2 (G2- | G2 FE F2 E2 | %48
w: ||mus, ge-|men- tes|* et flen-|tes ge-|men- tes et flen\-||
 F6 E2 | D4 E4) | D4 z4 | z4 z2 d2- | d2 ^c2 d2 A2 | d2 c2 (B2 A2 | G4) A4 | z G ^F2 G2 D2 | %56
w: ||tes,|In|* hac la- cri-|ma- rum val\- *|* le,|in hac la- cri-|
 G2 G2 A4 | =B8 |][M:4/4] z8 | d8 | B4 c4 | d8 | d6 c2 | B2 A2 G4 | d4 z2 d2- | d2 A2 B2 A2- | %66
w: ma- rum val-|le.||E-|ja er-|go,|Ad- vo-|ca- ta no-|stra, Ad\-|* vo- ca- ta|
 A2 (G4 ^FE | ^F2 G2) D4 | z2 G4 ^F2 | G4 D4 | z2 G4 =F2- | F2 _E2 D2 D2 | z8 | z2 d4 c2- | %74
w: * no\- * *|* * stra,|Il- los|tu- os|mi- se\-|* ri- cor- des,||mi- se\-|
 c2 B2 A4- | A2 G2 (F2 ED | E2) E2 D4 | G4 ^F4 | G4 (B3 A | G8) | d8- | d4 z4 | A8 | B8 | %84
w: * ri- cor\-|* des o\- * *|* cu- los|ad nos|con- ver\- *||te.||Et|Je-|
 A4 z2 d2- | d2 G2 (B3 A | G2 ^F2 G4) | D4 z2 B2- | B2 A2 d4 | c4 (c3 B | AD d4 ^c2) | d8 | z8 | %93
w: sum, be\-|* ne- di\- *||ctum fru\-|* ctum ven-|tris tu\- *||i,||
 z8 | z4 z2 d2 | d2 d2 d2 ^c2 | d3 =c B2 (c2- | cB G2) A4 | B2 (d3 c/B/ c2) | d4 d2 (G2- | %100
w: |No-|bis, post hoc e-|xi- li- um, o\-|* * * sten-|de. O * * *|cle- mens, O|
 G^F/E/ F2) G4 | G4 (B4- | B2 A2) (G4- | G2 ^FE F4 | G4) D4- | D4 z4 | D4 E4 | ^F4 G4 | A2 B2 A4 | %109
w: * * * * cle-|mens, O|* * pi\-||* a,||O dul-|cis Vir-|go Ma- ri-|
 =B4 z2 G2 | A4 =B4 | c4 d4 | (c3 B A2 d2- | d2 cB c4 | d8) | !fermata!d8 |] %116
w: a, O|dul- cis|Vir- go|Ma\- * * *||ri-|a.|
V:3
 z8 | (d8 | c8 | d8) | G2 G2 (B2 A2- | A2 GF G4) | A4 z2 A2 |[M:4/4][K:treble-8] (B3 A G2 F2- | %8
w: |Sal\-|||ve Re- gi\- *||na, Re-|gi\- * * *|
 F2 ED E4) | D4 z2 (d2- | d2 c2 B2 A2- | AF G2 A2) G2 | z2 d4 c2- | c2 B2 c2 c2 | F4 z4 | %15
w: |na, Ma\-||* * * * ter|mi- se\-|* ri- cor- di-|ae,|
 z4 z2 (d2- | dcBA B4- | B2 AG A2) B2 | G2 (A3 G G2) | A4 z2 d2- | d2 (c2 B2 AG | AB) c2 d4- | %22
w: Vi\-||* * * * ta,|dul- ce\- * *|do, dul\-|* ce\- * * *|* * * do,|
 d4 z2 G2 | A2 (F4 E2) | D3 (F G2 A2- | AG G4 ^F2) | G8 | z8 | z4 z2 D2 | F2 G2 (A4- | B4) A2 d2- | %31
w: * et|spes no\- *|stra, Sal\- * *||ve!||Ad|te cla- ma\-|* mus, ex\-|
 d2 c2 A2 B2- | B2 c2 (d4- | d2 cB A2) B2 | G4 A4- | A2 ^F2 G2 D2 | _E4 D4 | z2 A4 A2 | %38
w: * su- les fi\-|* lii He\-|* * * * vae,|ex- su\-|* les fi- lii|He- vae.|Ad te|
 B2 c2 (d4- | d2 cB c2 d2 | A2 c3 BAG | FG A4 G2) | A8 | z2 A2 A4 | G6 F2 | (B6 AG | A2 G2 F2 G2) | %47
w: sus- pi- ra\-||||mus,|ge- men-|tes et|flen\- * *||
 D4 z4 | z4 z2 A2- | A2 G2 A2 E2 | (F3 E D2) F2 | G4 D4 | z2 G4 F2 | B2 A2 G2 F2 | E4 D4 | %55
w: tes,|In|* hac la- cri-|ma\- * * rum|val- le,|in hac|la- cri- ma- rum|val- le,|
 z2 d2 d2 d2- | d2 c2 d4 | d8 |][M:4/4][K:treble-8] A8 | F4 (B3 A | G4 C2 G2- | G2 ^FE F4) | %62
w: la- cri- ma\-|* rum val-|le.|E-|ja er\- *|||
 G4 z4 | z8 | z4 z2 B2- | B2 F2 G2 D2 | _E4 D4 | z2 B4 A2 | (B3 c d4) | d8 | z4 z2 d2- | d2 c4 B2 | %72
w: go,||Ad\-|* vo- ca- ta|no- stra,|Il- los|tu\- * *|os|mi\-|* se- ri-|
 A2 A2 (B2 A2- | AG G3 ^F) F2 | G2 D2 F3 G | A2 B2 (c2 d2- | d2) ^c2 d4- | d4 z2 D2 | E2 G4 (F2- | %79
w: cor- des o\- *|* * * * cu-|los, mi- se- ri-|cor- des o\- *|* cu- los|* ad|nos con- ver\-|
 F2 EDEF G2- | G2 ^FE F4) | G4 z4 | ^F8 | G8 | D8 | z2 d4 G2 | (B2 A2) (B3 c | d4) z2 G2- | %88
w: ||te.|Et|Je-|sum,|be- ne-|di\- * ctum *|* fru\-|
 G2 F2 B4- | B2 A2 (G4 | F2 ED E4) | D2 A2 A2 B2 | A2 A2 B3 A | G2 (A3 G G2- | G2) ^F2 G4- | %95
w: * ctum ven\-|* tris tu\-||i, No- bis, post|hoc e- xi- li-|um, o\- * *|* sten- de.|
 G4 z4 | z8 | z8 | z4 G4 | A4 (B3 c | d4) z2 D2 | E4 F2 F2 | G8 | A8 | z2 G2 A4 | =B4 c4 | %106
w: |||O|cle- mens, *|* O|cle- mens, O|pi-|a,|O dul-|cis Vir-|
 d4 (c3 B | A2) (d4 c2) | d8 | z2 D2 E4 | ^F4 G4 | E2 (=F4 G2- | G2) (A3 ^F B2- | B2 A2 G4- | %114
w: go Ma\- *|* ri\- *|a,|O dul-|cis Vir-|go Ma\- *|* ri\- * *||
 G2 ^FE F4) | !fermata!G8 |] %116
w: |a.|
V:4
 (A,8 | G,8 | A,8) | D,4 z2 G,2 | (B,3 A, G,2 F,2- | F,2 E,D, E,4) | D,8 |[M:4/4] z8 | z4 z2 G,2- | %9
w: Sal\-|||ve Re-|gi\- * * *||na,||Re\-|
 G,2 (F,4 E,D, | E,4) D,4 | z4 z2 G,2- | G,2 F,4 _E,2 | D,4 C,4 | B,,4 F,4 | G,2 G,2 D,2 D,2 | %16
w: * gi\- * *|* na,|mi\-|* se- ri-|cor- di-|ae mi-|se- ri- cor- di-|
 G,,4 z2 (G,2- | G,2 ^F,E, F,2) G,2 | E,2 (=F,3 C, _E,2) | D,4 z4 | z2 G,4 (F,2- | %21
w: ae, Vi\-|* * * * ta,|dul- ce\- * *|do,|dul- ce\-|
 F,2 E,2 F,2 G,2) | D,4 z4 | D,4 C,4 | B,,4 F,4 | (G,4 D,4) | G,,8 | z4 z2 G,,2 | B,,2 C,2 (D,4- | %29
w: |do,|et spes|no- stra,|Sal\- *|ve!|Ad|te cla- ma\-|
 D,2 B,,2 C,2 D,2) | G,,2 G,4 F,2 | D,2 F,4 G,2 | _E,4 D,4 | z8 | z4 z2 D,2- | D,2 D,2 E,2 ^F,2 | %36
w: |mus, ex- su-|les fi- lii|He- vae.||Ad|* te sus- pi-|
 (G,6 F,E, | F,3 E, C,2 D,2) | G,,2 C,2 (B,,3 C, | D,E, F,2 E,2 D,2- | D,C,A,,=B,, C,2) D,2- | %41
w: ra\- * *||mus, ad te *||* * * * * sus\-|
 D,2 C,2 !courtesy!_B,,4 | A,,4 z2 D,2 | D,4 C,4- | C,2 B,,2 A,,4 | G,,8 | z8 | z2 D,4 ^C,2 | %48
w: * pi- ra-|mus, ge-|men- tes|* et flen-|tes,||In hac|
 D,2 A,,2 D,2 C,2 | B,,4 A,,4 | (D,3 E,F,G, A,2- | A,G, G,4 F,2 | E,4) D,4 | z8 | z2 G,4 ^F,2 | %55
w: la- cri- ma- rum|val- le,|val\- * * * *||* le,||in hac|
 G,2 D,2 G,2 !courtesy!=F,2 | (_E,4 D,4) | G,,8 |][M:4/4] z4 D,4- | D,4 B,,4 | _E,8 | D,8 | %62
w: la- cri- ma- rum|val\- *|le.|E\-|* ja|er-|go,|
 z2 B,4 F,2 | G,2 D,2 _E,4 | D,4 z4 | z8 | z8 | z2 G,4 ^F,2 | G,4 D,4 | z2 G,4 !courtesy!=F,2- | %70
w: Ad- vo-|ca- ta no-|stra,|||Il- los|tu- os|mi- se\-|
 F,2 _E,2 (D,3 C, | B,,2 C,2) G,,4 | (D,6 C,2 | B,,3 B,,/A,,/ A,,2) A,,2 | G,,4 z4 | z8 | %76
w: * ri- cor\- *|* * des|o\- *|* * * * cu-|los||
 z4 G,,4- | G,,4 D,4 | (C,4 B,,4) | (C,8 | D,8) | G,,4 z4 | D,8 | (G,,4 G,4- | G,2 ^F,E, F,4) | %85
w: ad|* nos|con\- *|ver\-||te.|Et|Je\- *||
 G,8 | z4 z2 G,2- | G,2 ^F,2 G,4 | D,2 D,4 B,,2 | F,4 C,4 | (D,2 B,,2) A,,4 | z2 D,2 D,2 D,2 | %92
w: sum,|be\-|* ne- di-|ctum fru- ctum|ven- tris|tu\- * i,|No- bis, post|
 D,2 ^C,2 D,3 =C, | B,,2 (C,3 B,, G,,2) | A,,4 G,,4- | G,,4 z4 | z2 (G,4 F,2) | (_E,4 D,4) | %98
w: hoc e- xi- li-|um, o\- * *|sten- de,||o\- *|sten\- *|
 G,,4 z2 (G,2- | G,^F,/E,/ F,2) G,4 | D,4 G,,4 | (C,4 B,,4 | _E,8) | D,8 | z8 | G,,4 A,,4 | %106
w: de. O|* * * * cle-|mens, O|pi\- *||a,||O dul-|
 B,,4 C,4 | D,4 _E,4 | D,8 | G,,8 | z4 G,,4 | A,,4 B,,4 | C,4 D,4 | _E,8 | D,8 | !fermata!G,,8 |] %116
w: cis Vir-|go Ma-|ri-|a,|O|dul- cis|Vir- go|Ma-|ri-|a.|

